frontend/public/assets/material-icons/folder-resource-open.svg

<svg xmlns="http://www.w3.org/2000/svg" viewBox="0 0 32 32"><path fill="#fbc02d" d="M28.967 12H9.442a2 2 0 0 0-1.898 1.368L4 24V10h24a2 2 0 0 0-2-2H15.124a2 2 0 0 1-1.28-.464l-1.288-1.072A2 2 0 0 0 11.276 6H4a2 2 0 0 0-2 2v16a2 2 0 0 0 2 2h22l4.805-11.212A2 2 0 0 0 28.967 12"/><path fill="#fff9c4" d="M16 16h-2v13a1 1 0 0 0 1 1h13v-2H16Z"/><path fill="#fff9c4" d="M31 12H19a1 1 0 0 0-1 1v12a1 1 0 0 0 1 1h12a1 1 0 0 0 1-1V13a1 1 0 0 0-1-1m-5 12h-6v-2h6Zm4-4H20v-2h10Zm0-4H20v-2h10Z"/></svg>

<svg xmlns="http://www.w3.org/2000/svg" viewBox="0 0 32 32">
  <path d="M28.96692,12H9.44152a2,2,0,0,0-1.89737,1.36754L4,24V10H28a2,2,0,0,0-2-2H15.1241a2,2,0,0,1-1.28038-.46357L12.5563,6.46357A2,2,0,0,0,11.27592,6H4A2,2,0,0,0,2,8V24a2,2,0,0,0,2,2H26l4.80523-11.21213A2,2,0,0,0,28.96692,12Z" style="fill: #fbc02d"/>
  <g>
    <path d="M16,16H14V29a1,1,0,0,0,1,1H28V28H16Z" style="fill: #fff9c4;fill-rule: evenodd"/>
    <path d="M31,12H19a1,1,0,0,0-1,1V25a1,1,0,0,0,1,1H31a1,1,0,0,0,1-1V13A1,1,0,0,0,31,12ZM26,24H20V22h6Zm4-4H20V18H30Zm0-4H20V14H30Z" style="fill: #fff9c4;fill-rule: evenodd"/>
  </g>
</svg>
